svgs/sharp-light/cat-space.svg

<svg xmlns="http://www.w3.org/2000/svg" viewBox="0 0 640 512"><!--! Font Awesome Pro 6.6.0 by @fontawesome - https://fontawesome.com License - https://fontawesome.com/license (Commercial License) Copyright 2024 Fonticons, Inc. --><path d="M448 288c-70.7 0-128-57.3-128-128c0-32.5 12.1-62.1 32-84.7l0 84.7c0 53 43 96 96 96s96-43 96-96l0-84.7c19.9 22.6 32 52.2 32 84.7c0 70.7-57.3 128-128 128zM608 160c0-52.3-25.1-98.8-64-128l0-1.3-.8 .7C516.6 11.7 483.6 0 448 0s-68.6 11.7-95.2 31.4l-.8-.7 0 1.3c-38.9 29.2-64 75.7-64 128c0 4.6 .2 9.1 .6 13.6C218.8 192.1 161.5 238.4 128 299.2L128 176c0-44.2-35.8-80-80-80L32 96l0 32 16 0c26.5 0 48 21.5 48 48l0 248 0 72 0 16 16 0 64 0c0 0 0 0 0 0l128 0 64 0 16 0 0-16 0-21.3c0-23.4-13.7-43.5-33.4-53L416 392.6 416 496l0 16 16 0 64 0 16 0 0-16 0-189.3c56.5-24.7 96-81.1 96-146.7zM480 316.8L480 480l-32 0 0-112 0-24.6-22.5 10L304 407.4l0-15.4c0-39.8-32.2-72-72-72l-8 0-16 0 0 32 16 0 8 0c22.1 0 40 17.9 40 40l0 24 0 16 0 16 16 0 37.3 0c14.7 0 26.7 11.9 26.7 26.7l0 5.3-48 0c0 0 0 0 0 0l-128 0-48 0 0-56c0-103.1 69.2-192 166.5-218.8C314 271.5 375.3 320 448 320c11 0 21.7-1.1 32-3.2zM413.6 80L378.9 52.2C398.8 39.4 422.6 32 448 32s49.2 7.4 69.1 20.2L482.4 80l-68.8 0zM240 16l0-16L208 0l0 16 0 32-32 0-16 0 0 32 16 0 32 0 0 32 0 16 32 0 0-16 0-32 32 0 16 0 0-32-16 0-32 0 0-32zM384 97.3l14 11.2 4.4 3.5 5.6 0 80 0 5.6 0 4.4-3.5 14-11.2 0 62.7c0 35.3-28.7 64-64 64s-64-28.7-64-64l0-62.7zM416 168a16 16 0 1 0 0-32 16 16 0 1 0 0 32zm80-16a16 16 0 1 0 -32 0 16 16 0 1 0 32 0z"/></svg>

<svg xmlns="http://www.w3.org/2000/svg" viewBox="0 0 640 512"><!--! Font Awesome Pro 6.4.0 by @fontawesome - https://fontawesome.com License - https://fontawesome.com/license (Commercial License) Copyright 2023 Fonticons, Inc. --><path d="M448 288c-70.7 0-128-57.3-128-128c0-32.5 12.1-62.1 32-84.7V160c0 53 43 96 96 96s96-43 96-96V75.3c19.9 22.6 32 52.2 32 84.7c0 70.7-57.3 128-128 128zM608 160c0-52.3-25.1-98.8-64-128V30.7l-.8 .7C516.6 11.7 483.6 0 448 0s-68.6 11.7-95.2 31.4l-.8-.7V32c-38.9 29.2-64 75.7-64 128c0 4.6 .2 9.1 .6 13.6C218.8 192.1 161.5 238.4 128 299.2V176c0-44.2-35.8-80-80-80H32v32H48c26.5 0 48 21.5 48 48V424v72 16h16 64 0H304h64 16V496 474.7c0-23.4-13.7-43.5-33.4-53L416 392.6V496v16h16 64 16V496 306.7c56.5-24.7 96-81.1 96-146.7zM480 316.8V480H448V368 343.4l-22.5 10L304 407.4V392c0-39.8-32.2-72-72-72h-8H208v32h16 8c22.1 0 40 17.9 40 40v24 16 16h16 37.3c14.7 0 26.7 11.9 26.7 26.7V480H304h0H176 128V424c0-103.1 69.2-192 166.5-218.8C314 271.5 375.3 320 448 320c11 0 21.7-1.1 32-3.2zM413.6 80L378.9 52.2C398.8 39.4 422.6 32 448 32s49.2 7.4 69.1 20.2L482.4 80H413.6zM240 16V0H208V16 48H176 160V80h16 32v32 16h32V112 80h32 16V48H272 240V16zM384 97.3l14 11.2 4.4 3.5H408h80 5.6l4.4-3.5 14-11.2V160c0 35.3-28.7 64-64 64s-64-28.7-64-64V97.3zM416 168a16 16 0 1 0 0-32 16 16 0 1 0 0 32zm80-16a16 16 0 1 0 -32 0 16 16 0 1 0 32 0z"/></svg>
